packages/core/src/svgs/tokens/mono/KAP.svg

<svg width="24" height="24" viewBox="0 0 24 24" fill="none" xmlns="http://www.w3.org/2000/svg">
<path d="M7.26477 9.05884L3.17651 22L9.7648 18.4119L10.1236 18.6119L8.92949 14.6118L8.34126 16.4177L7.67065 16.1236L8.5589 13.3883L7.26477 9.05884ZM16.6413 9.05884L20.8236 22L14.0766 18.4119L13.7119 18.6119L14.9354 14.6118L15.5354 16.4177L16.2237 16.1236L15.3119 13.3883L16.6472 9.05884H16.6413Z" fill="white"/>
<path d="M12.0001 2L9.05884 11.1059L12.0001 20.8237L14.9412 11.1059L12.0001 2ZM9.93535 11.1237L12.0001 4.71179L14.0647 11.1237L12.0001 17.9178L9.93535 11.1237Z" fill="white"/>
</svg>

<svg xmlns="http://www.w3.org/2000/svg" width="24" height="24" fill="none" viewBox="0 0 24 24">
    <path fill="#fff" d="M7.265 9.059 3.177 22l6.588-3.588.359.2-1.195-4-.588 1.806-.67-.294.888-2.736zm9.376 0L20.824 22l-6.747-3.588-.365.2 1.223-4 .6 1.806.689-.294-.912-2.736 1.335-4.33zM12 2l-2.94 9.106L12 20.824l2.941-9.718zm-2.065 9.124L12 4.712l2.065 6.412L12 17.918z"/>
</svg>
